src/images/icon-error.svg

<svg fill="none" height="16" viewBox="0 0 16 16" width="16" xmlns="http://www.w3.org/2000/svg"><path d="m15.1193 5.65929-.0324-.09719-.0324-.0972h-.0081c-.3239-.90712-.818-1.74136-1.4578-2.4622-.1701-.19438-.3564-.38067-.5508-.55076-.737-.67224-1.6199-1.2068-2.608-1.546972h-.0081c-.2592-.089093-.52645-.161987-.80183-.226782-.55076-.121491-1.09341-.178186-1.62797-.178186-.27538 0-.55886.016199-.83423.048596-.42927.048596-.84234.12959-1.2473.25108-2.39741.696544-4.38175 2.575594-5.110694 5.110694-.048596.15388-.089093.31587-.12149.47786-.056696.25918-.105292.52646-.12959.78564-.032397.28347-.048596.55885-.048596.83423 0 .80184.137689 1.58747.38067 2.3326h-.0081l.040497.0972.032397.0891h.0081c.332076.9233.842336 1.7819 1.506476 2.5108.17819.1944.37257.3888.56696.567.72084.6479 1.57937 1.1582 2.54319 1.4821l.0162.0081c.25918.0891.53456.162.80994.2268.54265.1215 1.08531.1782 1.61987.1782.31587 0 .63175-.0162.93952-.0567.44547-.0567.87473-.1539 1.29588-.2835 2.2921-.7208 4.1793-2.527 4.9244-4.9406.0648-.1944.1134-.39685.162-.60743.0486-.22678.0891-.44546.1134-.67225.0405-.31587.0567-.63174.0567-.94762-.0081-.80184-.1458-1.58747-.3888-2.33261zm-13.3477.97192c.0243-.10529.04859-.20248.07289-.29968.16199-.60745.41307-1.1744.73704-1.69276.51836-.83423 1.22301-1.53078 2.04914-2.04104.51836-.32397 1.08531-.57505 1.68466-.73704.54266-.15389 1.10962-.22678 1.68467-.22678.45356 0 .91523.0486 1.36879.14579 1.05291.23488 1.98431.72084 2.75381 1.37689l-8.97411 8.97411c-.96382-1.1339-1.53078-2.59182-1.53078-4.1307.0081-.45356.0567-.91523.15389-1.36879zm12.4568 2.73758c-.0324.14579-.0729.29158-.1134.42927-.1944.66414-.486 1.27164-.8666 1.81424-.4374.6318-.98 1.1744-1.6037 1.6118-.5588.3888-1.1825.6884-1.83855.8909-.57505.1701-1.1825.2673-1.80615.2673-.45356 0-.91523-.0486-1.36879-.1458-1.02862-.2268-1.94385-.6965-2.69709-1.3283l8.94978-8.99027c.9395 1.12581 1.4903 2.56749 1.4903 4.08207 0 .45356-.0486.91523-.1458 1.36879z" fill="#b50000"/></svg>

<svg width="16" height="16" viewBox="0 0 16 16" fill="none" xmlns="http://www.w3.org/2000/svg">
<path d="M15.1193 5.65929L15.0869 5.5621L15.0545 5.4649H15.0464C14.7225 4.55778 14.2284 3.72354 13.5886 3.0027C13.4185 2.80832 13.2322 2.62203 13.0378 2.45194C12.3008 1.7797 11.4179 1.24514 10.4298 0.904968H10.4217C10.1625 0.815875 9.89525 0.742981 9.61987 0.678186C9.06911 0.556695 8.52646 0.5 7.9919 0.5C7.71652 0.5 7.43304 0.516199 7.15767 0.548596C6.7284 0.597192 6.31533 0.678186 5.91037 0.799676C3.51296 1.49622 1.52862 3.37527 0.799676 5.91037C0.75108 6.06425 0.710583 6.22624 0.678186 6.38823C0.62149 6.64741 0.572894 6.91469 0.548596 7.17387C0.516199 7.45734 0.5 7.73272 0.5 8.0081C0.5 8.80994 0.637689 9.59557 0.88067 10.3407H0.87257L0.913067 10.4379L0.945464 10.527H0.953564C1.28564 11.4503 1.7959 12.3089 2.46004 13.0378C2.63823 13.2322 2.83261 13.4266 3.027 13.6048C3.74784 14.2527 4.60637 14.763 5.57019 15.0869L5.58639 15.095C5.84557 15.1841 6.12095 15.257 6.39633 15.3218C6.93898 15.4433 7.48164 15.5 8.0162 15.5C8.33207 15.5 8.64795 15.4838 8.95572 15.4433C9.40119 15.3866 9.83045 15.2894 10.2516 15.1598C12.5437 14.439 14.4309 12.6328 15.176 10.2192C15.2408 10.0248 15.2894 9.82235 15.338 9.61177C15.3866 9.38499 15.4271 9.16631 15.4514 8.93952C15.4919 8.62365 15.5081 8.30778 15.5081 7.9919C15.5 7.19006 15.3623 6.40443 15.1193 5.65929ZM1.7716 6.63121C1.7959 6.52592 1.82019 6.42873 1.84449 6.33153C2.00648 5.72408 2.25756 5.15713 2.58153 4.63877C3.09989 3.80454 3.80454 3.10799 4.63067 2.59773C5.14903 2.27376 5.71598 2.02268 6.31533 1.86069C6.85799 1.7068 7.42495 1.63391 8 1.63391C8.45356 1.63391 8.91523 1.68251 9.36879 1.7797C10.4217 2.01458 11.3531 2.50054 12.1226 3.15659L3.14849 12.1307C2.18467 10.9968 1.61771 9.53888 1.61771 8C1.62581 7.54644 1.67441 7.08477 1.7716 6.63121ZM14.2284 9.36879C14.196 9.51458 14.1555 9.66037 14.115 9.79806C13.9206 10.4622 13.629 11.0697 13.2484 11.6123C12.811 12.2441 12.2684 12.7867 11.6447 13.2241C11.0859 13.6129 10.4622 13.9125 9.80615 14.115C9.2311 14.2851 8.62365 14.3823 8 14.3823C7.54644 14.3823 7.08477 14.3337 6.63121 14.2365C5.60259 14.0097 4.68736 13.54 3.93412 12.9082L12.8839 3.91793C13.8234 5.04374 14.3742 6.48542 14.3742 8C14.3742 8.45356 14.3256 8.91523 14.2284 9.36879Z" fill="#B50000"/>
</svg>
